kharidlive/v1/i/private_send.svg

<svg xmlns="http://www.w3.org/2000/svg" width="24" height="24" viewBox="0 0 24 24"><path fill="darkgray" d="M23 18v-.5a2.5 2.5 0 0 0-2.5-2.5a2.5 2.5 0 0 0-2.5 2.5v.5a1 1 0 0 0-1 1v4a1 1 0 0 0 1 1h5a1 1 0 0 0 1-1v-4a1 1 0 0 0-1-1m-1 0h-3v-.5a1.5 1.5 0 0 1 1.5-1.5a1.5 1.5 0 0 1 1.5 1.5zm1-6L2 21v-7l15-2l-15-2V3z"/></svg>

<?xml version="1.0" encoding="UTF-8"?><!DOCTYPE svg PUBLIC "-//W3C//DTD SVG 1.1//EN" "http://www.w3.org/Graphics/SVG/1.1/DTD/svg11.dtd"><svg xmlns="http://www.w3.org/2000/svg" xmlns:xlink="http://www.w3.org/1999/xlink" version="1.1" width="24" height="24" viewBox="0 0 24 24"><path fill="#ffffff" d="M23,18V17.5A2.5,2.5 0 0,0 20.5,15A2.5,2.5 0 0,0 18,17.5V18A1,1 0 0,0 17,19V23A1,1 0 0,0 18,24H23A1,1 0 0,0 24,23V19A1,1 0 0,0 23,18M22,18H19V17.5A1.5,1.5 0 0,1 20.5,16A1.5,1.5 0 0,1 22,17.5V18M23,12L2,21V14L17,12L2,10V3L23,12Z" /></svg>
